X:1
T:The Christian Flag
T:Raymond Huntington Woodman
T:The Christian Flag
T:Public Domain
T:Public Domain
T:Public Domain
T:Public Domain
C:Raymond Huntington Woodman
Z:Public Domain
%%score ( 1 2 ) { ( 3 5 ) | ( 4 6 ) }
L:1/8
M:4/4
K:A
V:1 treble 
V:2 treble 
V:3 treble 
V:5 treble 
V:4 bass 
V:6 bass 
V:1
 E2 | c2 A2 E3 F | A2 G4 E2 | A2 A2 (Bc) d2 | (z"^Trumpet" E/E/ EE AE)(Ac) | c3 c G2 B2 | %6
w: 1.~The|Christ- ian Flag! be-|hold it, And|hail it with * a|* * * * * * song, *|the voice of mil-|
w: 2.~The|Christ- ian Flag! un-|furl it, That|all the world * may|* * * * * * see *|stained cross of Je-|
w: 3.~The|Christ- ian Flag! God|bless it! Now|throw it to * the|* * * * * * breeze, *|it wave tri- um-|
 B2 A4 G2 | F2 (GA) G2 F2 | (z"^Trumpet" E/E/ GB eB)(GE) | B3 B F2 G2 | B2 A4 c2 | d2 c2 B2 F2 | %12
w: lions The joy-|ful strain * pro- long,|* * * * * * To *|ery clime and na-|tion, We send|it forth to- day;|
w: sus, Who died|to make * us free.|* * * * * * The *|ian Flag! un- furl|it, And o’er|and o’er a- gain,|
w: phant O’er land|and dis- * tant seas,|* * * * * * Till *|the wide cre- a-|tion Up- on|its folds shall gaze,|
 (A4 G2) E2 | c2 B2 A2 G2 | G2 F4 A2 | E2 A2 c3 B | (z A/A/ AA cA) ||"^Refrain" ce | d3 d A2 B2 | %19
w: God * speed|its glor- ious mis-|sion, With ear-|nest hearts we pray.||||
w: Oh! * may|it bear the mes-|sage, “Good will|and peace to men.”|||ian Flag! be- hold|
w: And * all|the world u- nit-|ed, Our lov-|ing Sav- ior praise.||||
 c2 c4 c2 | c3 B B2 F2 | (A4 G2) E2 | c3 B A2 G2 | (F2 d2 z F/F/) (FF) | (AE/E/) (A/E/A/)c/ e3 G | %25
w: ||||||
w: it, And hail|it with a song,|And * let|the voice of mil-|lions * * * The *|ful * * strain * * pro- long. *|
w: ||||||
 (A>A ce a2) |] %26
w: |
w: |
w: |
V:2
 x2 | x8 | x8 | x8 | c6 c2 | x8 | x8 | x8 | (E6 E2) | x8 | x8 | x8 | x8 | x8 | x8 | x8 | A6 || A2 | %18
w: ||||And let||||ev- *||||||||||
w: ||||The blood-||||Christ- *||||||||The|Christ-|
w: ||||And may||||all *||||||||||
 x8 | x8 | x8 | x8 | x8 | x4 (c2 B2) | A2 c2 e3 G | A6 |] %26
w: ||||||||
w: |||||joy- *|||
w: ||||||||
V:3
 E2 | [CEc]2 [CEA]2 E3 [^DF] | [DEA]2 [DEG]4 [B,E]2 | [A,EA]2 [CEA]2 ([B,EGB][Cc]) [DGd]2 | %4
 [CAc]6 [CAc]2 | [C^EGc]3 [Cc] [CF]2 [CEB]2 | [B,CFB]2 [A,CFA]4 [CEG]2 | %7
 [CEF]2 ([CEG]A) [B,^DG]2 [B,DF]2 | [B,E]6 E2 | [DEB]3 [DEB] [DF]2 [DG]2 | [DEB]2 [CEA]4 [EAc]2 | %11
 [DAd]2 [EAc]2 [B,FB]2 [B,F]2 | ([CE]2 [=C^D]2 [B,EG]2) [=DE]2 | [CEc]2 [CEB]2 [A,CA]2 [A,CG]2 | %14
 [B,DA]2 [A,-D]2 [A,C]2 [A,=CFA]2 | [A,CE]2 [CEA]2 ([DEG]2 z) B | [CEA]6 || [CGA]2 | %18
 [DFAd]3 [Dd] [DFA]2 [D=FB]2 | [CEc]2 [CEc]4 [CAc]2 | [C^DFc]3 [B,B] [B,DFB]2 [B,DF]2 | %21
 [B,DA]4 [B,DG]2 [DE]2 | [CE]2 z B [=EA]2 [^EG]2 | F2 [DFd]2 [CFc]2 [B,FB]2 | %24
 [CEA]2 [EAc]2 [DEGe]3 [DEG] | [CEA]6 |] %26
V:4
 E,2 | [A,,E,A,]2 [A,,E,A,]2 [C,E,A,]3 [=C,E,A,] | [B,,E,B,]2 [B,,E,B,]4 [D,G,]2 | %3
 [C,A,]2 [A,,A,]2 [E,,E,]2 [E,B,]2 | [A,,E,A,]6 [A,,E,A,]2 | [G,,^E,B,]3 [E,B,] [E,B,]2 [C,G,B,]2 | %6
 [F,,F,]2 [F,,C,F,]4 [G,,C,G,]2 | [A,,A,]2 [F,,F,]2 [B,,,B,,]2 [B,,F,A,]2 | [E,,E,G,]6 E,2 | %9
 [E,,G,]2 [E,G,]2 [E,A,]2 [E,B,]2 | [A,,E,G,]2 [A,,E,A,]4 ([A,,A,][G,,G,]) | %11
 [F,,F,]2 [E,,E,]2 [D,,D,]2 [D,F,]2 | (E,2 F,2) [E,G,]2 [E,G,]2 | %13
 [A,,A,]2 [A,,E,]2 [A,,^E,]2 [A,,E,]2 | [D,,^E,]2 [D,F,]4 [^D,,^D,]2 | %15
 [E,,E,]2 [E,A,]2 [E,,E,]2 [E,G,]2 | [A,,E,A,]6 || [A,,A,]2 | [D,,D,]2 [D,F,A,]2 [D,A,]2 [D,G,]2 | %19
 [A,,E,A,]2 [A,,E,A,]4 [A,,E,A,]2 | [B,,,B,,]2 [B,,F,A,]2 [B,,F,A,]2 [B,,F,A,]2 | %21
 E,2 E,F, [E,G,]2 [E,G,]2 | [A,,A,]2 [B,,G,]2 [C,A,]2 [C,A,]2 | [D,A,]2 [B,,A,]2 [C,A,]2 [D,A,]2 | %24
 [E,A,]2 [E,A,C]2 [E,,E,]2 [E,B,]2 | [A,,E,A,]6 |] %26
V:5
 x2 | x8 | x8 | x8 | x8 | x8 | x8 | x8 | x8 | x8 | x8 | x8 | A4 x4 | x8 | A4 x4 | c3 [DEG]2 x3 | %16
 x6 || x2 | x8 | x8 | x8 | x8 | c3 [D^E]2 x3 | x8 | x8 | x6 |] %26
V:6
 x2 | x8 | x8 | x8 | x8 | x8 | x8 | x8 | x8 | x8 | x8 | x8 | E,,4 x4 | x8 | x8 | x8 | x6 || x2 | %18
 x8 | x8 | x8 | E,,4 x4 | x8 | x8 | x8 | x6 |] %26

